src/icons/icons_set_01/040-imprimante.svg

<svg height="50" viewBox="0 0 50 50" width="50" xmlns="http://www.w3.org/2000/svg"><path d="m34.0556065 15.7837571v-15.65872734h-26.10121305v15.65872734c-5.21790874 0-7.82769662 2.6106215-7.82936369 7.8318643v13.0506066h7.82936369v5.2187422h26.10121305v-5.2187422h7.8293637v-13.0506066c0-4.4685637-2.6106214-7.8318643-7.8293637-7.8318643zm-1.7705991 24.3412727h-22.56001484v-9.9853554h22.56001484zm0-24.3412727h-22.56001484v-13.65872734h22.56001484z" transform="translate(3.995 3.995)"/></svg>

<?xml version="1.0" encoding="UTF-8"?>
<svg width="50px" height="50px" viewBox="0 0 50 50" version="1.1" xmlns="http://www.w3.org/2000/svg" xmlns:xlink="http://www.w3.org/1999/xlink">
    <!-- Generator: Sketch 52.4 (67378) - http://www.bohemiancoding.com/sketch -->
    <title>040-imprimante</title>
    <desc>Created with Sketch.</desc>
    <g id="040-imprimante" stroke="none" stroke-width="1" fill="none" fill-rule="evenodd">
        <g id="Group" transform="translate(3.995000, 3.995000)" fill="#000000" fill-rule="nonzero">
            <g id="074-imprimante">
                <g id="ICONSET-01">
                    <g id="074-imprimante">
                        <path d="M34.0556065,15.7837571 L34.0556065,0.125029762 L7.95439345,0.125029762 L7.95439345,15.7837571 C2.73648471,15.7837571 0.126696825,18.3943786 0.125029762,23.6156214 L0.125029762,36.666228 L7.95439345,36.666228 L7.95439345,41.8849702 L34.0556065,41.8849702 L34.0556065,36.666228 L41.8849702,36.666228 L41.8849702,23.6156214 C41.8849702,19.1470577 39.2743488,15.7837571 34.0556065,15.7837571 Z M32.2850074,40.1250298 L9.72499256,40.1250298 L9.72499256,30.1396744 L32.2850074,30.1396744 L32.2850074,40.1250298 Z M32.2850074,15.7837571 L9.72499256,15.7837571 L9.72499256,2.12502976 L32.2850074,2.12502976 L32.2850074,15.7837571 Z" id="Shape"></path>
                    </g>
                </g>
            </g>
        </g>
    </g>
</svg>
